!!!COM: Gabriel Faure/
!!!CNT: Francais
!!!TXO: Francais
!!!OTL: Hymne
!!!OPS: Op. 7
!!!ONM: No. 2
!!!LYR: Charles Baudelaire
!!!ENC: Jacob Pegg
!!!YOR: Album of Twenty Songs (Vingt Me/lodies,) Volume I
!!!YOR: Edward B. Marks Music Corporation, RCA Building, Radio
!!!YOR: City, New York 20, N.Y.
!!!ODT: 1870/
!!NB: Vocal melody and text only encoded.
!!NB: First instance of melodic material only encoded.
**kern	**silbe
*clef G2	*
*k[f#]	*
*M6/8	*
*MM[allegretto]	*
!!created: 8/22/03 0:11
!!proofed and posted: 8/22/03 10:28
!!edit time: 34 min.
=1	=1
4r	.
2r	.
=2	=2
2r	.
4r	.
=3	=3
{8d	{A
8e	la
8e#	tre\s
4f#	che\-
8g	-re,
=4	=4
8g	a\
8g#	la
8a	tre\s
4a#	bel-
8b}	-le,}
=5	=5
{4cc	{Qui
8b	rem-
4ee	-plit
8dd	mon
=6	=6
(4dd	coeur
[8cc)	|
8cc]	|
8g	de
8a	clar-
=7	=7
2.b}	-te.}
=8	=8
2r	.
4r	.
=9	=9
{4.ee	{A
[4.dd	l'ange
=10	=10
8dd]	|
8cc	a\
8g#	l'i-
8a	-dole
8cc	im-
8ee	-mor-
=11	=11
(4.f#	-tel-
4gn	|
8g#)	|
=12	=12
4a}	-le,}
8r	.
4r	.
8r	.
=13	=13
{4.b	{Sa-
[4.dd	-lut
=14	=14
8dd]	|
8cc	en
8b	im-
8a	-mor-
8g	-ta-
8f#	-li-
=15	=15
4.b}	-te/,}
{4.dd	{Sa-
=16	=16
8ee	-lut
8dd	en
8cc	im-
8b	-mor-
8a	-ta-
8g	-li-
=17	=17
[2.ee	-te/!
=18	=18
4.ee]}	|}
8r	.
4r	.
=19	=19
2r	.
4r	.
=20	=20
4r	.
2r	.
=21	=21
{4cc	{El-
8cc	-le
4b	se
8a	re/-
=22	=22
(4a	-pand
8g)	|
4fn	dans
8e	ma
=23	=23
4.a	vi-
4.g}	-e,}
=24	=24
4r	.
8r	.
{4cc	{Comme
8dd	un
=25	=25
2.ee	air
=26	=26
4ee	im-
8ee	-pre/-
4ff#	-gne/
8ee	de
=27	=27
[2.dd	sel,
=28	=28
4.dd]}	|}
{4.dd	{Et
=29	=29
4ee-	dans
8dd	mon
[4.ee-	a^me
=30	=30
4ee-]	|
8gg	in-
4ffn	-as-
8ee-	-sou-
=31	=31
4.dd	-vi-
4.b}	-e}
=32	=32
{4.b	{Ver-
4a	-se
8g	le
=33	=33
[2.b	gou^t
=34	=34
4b]	|
8b	de
4a	l'E/-
8g	-ter-
=35	=35
[2.f	-nel,
=36	=36
4.f]}	|}
{4.f	{Com-
=37	=37
[4.dd#	-ment,
4dd#]	|
8dd#	a-
=38	=38
4dd#	-mour
8dd#	in-
4cc#	-cor-
8b	-rup-
=39	=39
2.dd#	-ti-
=40	=40
4.b}	-ble,}
{4b	{T'ex-
8cc#	-pri-
=41	=41
2.dd#	-mer
=42	=42
4dd#	a-
8dd#	-vec
4cc#	ve/-
8b	-ri-
=43	=43
[2.a#	-te/,
=44	=44
4.a#]}	|}
{4a#	{Grain
8a#	de
=45	=45
[4.b	musc,
4b]	|
8b	qui
=46	=46
4.b	gis
4an	in-
8g	-vi-
=47	=47
2.b	-si-
=48	=48
4.b}	-ble}
{4.b	{Au
=49	=49
[4.b	fond
4b]	|
8a	de
=50	=50
4a	mon
8f#	e/-
4g	-ter-
8b	-ni-
=51	=51
[2.dd	-te/?
=52	=52
2.dd]}	|}
!! rest 2 mm., then repeat material 55-69
=70	=70
{2.gg	{Sa-
=71	=71
4.b	-lut
8b	en
8ff#	im-
8ee	-mor-
=72	=72
[4.dd	-ta-
4dd]	|
8f#	-li-
=73	=73
2.g}	-te/!}
*-	*-
